packages/core/src/svgs/tokens/mono/VXV.svg

<svg width="24" height="24" viewBox="0 0 24 24" fill="none" xmlns="http://www.w3.org/2000/svg">
<path fill-rule="evenodd" clip-rule="evenodd" d="M20.4019 7.28631L11.9998 2.56012L3.59773 7.28631V16.7137L11.9998 21.4398L20.4019 16.7137V7.28631ZM12.2744 2.07196C12.1038 1.97601 11.8956 1.97601 11.7252 2.07196L3.3231 6.79815C3.14676 6.89735 3.0376 7.08398 3.0376 7.28631V16.7137C3.0376 16.916 3.14676 17.1026 3.3231 17.2018L11.7252 21.928C11.8956 22.024 12.1038 22.024 12.2744 21.928L20.6765 17.2018C20.8528 17.1026 20.9621 16.916 20.9621 16.7137V7.28631C20.9621 7.08398 20.8528 6.89735 20.6765 6.79815L12.2744 2.07196Z" fill="white"/>
<path fill-rule="evenodd" clip-rule="evenodd" d="M12.3473 18.5322L18.3684 8.235C18.614 7.81495 18.1413 7.34315 17.7164 7.58429L12.0154 10.8199L6.3318 7.58596C5.90721 7.34438 5.43383 7.81568 5.67901 8.23595L11.6842 18.5319C11.8317 18.7847 12.1996 18.7849 12.3473 18.5322ZM12.3224 16.7356L16.1242 10.0229C16.2195 9.85452 16.0305 9.6688 15.8618 9.76499L11.997 11.9683L12.0056 11.9879L9.68924 13.3079L11.6553 16.7373C11.8028 16.9944 12.1764 16.9933 12.3224 16.7356ZM9.19086 12.4384L11.0113 11.4066L8.01983 9.67912C7.85072 9.58149 7.66023 9.76852 7.75696 9.93725L9.19086 12.4384Z" fill="white"/>
<path d="M11.7 12.1608L10.7095 11.5812L12.2274 10.7001L13.1836 11.2882L11.7 12.1608Z" fill="white"/>
<path d="M10.4116 11.0604L14.3827 13.3483L15.0512 12.6217L11.1271 10.3159L10.4116 11.0604Z" fill="white"/>
</svg>

<svg xmlns="http://www.w3.org/2000/svg" width="24" height="24" fill="none" viewBox="0 0 24 24">
    <path fill="#fff" fill-rule="evenodd" d="M20.402 7.286 12 2.56 3.598 7.286v9.428L12 21.44l8.402-4.726zm-8.128-5.214a.56.56 0 0 0-.549 0L3.323 6.798a.56.56 0 0 0-.285.488v9.428a.56.56 0 0 0 .285.488l8.402 4.726a.56.56 0 0 0 .55 0l8.402-4.726a.56.56 0 0 0 .285-.488V7.286a.56.56 0 0 0-.285-.488z" clip-rule="evenodd"/>
    <path fill="#fff" fill-rule="evenodd" d="m12.347 18.532 6.021-10.297c.246-.42-.227-.892-.652-.65l-5.7 3.235-5.684-3.234c-.425-.242-.898.23-.653.65l6.005 10.296a.385.385 0 0 0 .663 0m-.025-1.796 3.802-6.713c.096-.168-.093-.354-.262-.258l-3.865 2.203.009.02-2.317 1.32 1.966 3.43a.385.385 0 0 0 .667-.002m-3.131-4.298 1.82-1.031L8.02 9.679c-.17-.098-.36.09-.263.258z" clip-rule="evenodd"/>
    <path fill="#fff" d="m11.7 12.16-.99-.579 1.517-.88.957.587z"/>
    <path fill="#fff" d="m10.412 11.06 3.97 2.288.67-.726-3.925-2.306z"/>
</svg>
